icons/ruler.svg

<svg
  width="24"
  height="24"
  viewBox="0 0 24 24"
  xmlns="http://www.w3.org/2000/svg"
  fill="none"
  stroke="currentColor"
  stroke-width="2"
  stroke-linecap="round"
  stroke-linejoin="round"
>
  <path d="M7 22.5l-5-5 4.25-4.25 3.5-3.5 3.5-3.5L17 2.5l5 5-15 15z" />
  <path d="M12 12L9.75 9.75" />
  <path d="M15 8l-1.75-1.75" />
  <path d="M8 15l-1.75-1.75" />
</svg>

<svg width="24" height="24" viewBox="0 0 24 24" fill="none" xmlns="http://www.w3.org/2000/svg">
<path d="M7 22.5L2 17.5L6.25 13.25L9.75 9.75L13.25 6.25L17 2.5L22 7.5L7 22.5Z" stroke="white" stroke-width="2" stroke-linecap="round" stroke-linejoin="round"/>
<path d="M12 12L9.75 9.75" stroke="white" stroke-width="2" stroke-linecap="round" stroke-linejoin="round"/>
<path d="M15 8L13.25 6.25" stroke="white" stroke-width="2" stroke-linecap="round" stroke-linejoin="round"/>
<path d="M8 15L6.25 13.25" stroke="white" stroke-width="2" stroke-linecap="round" stroke-linejoin="round"/>
</svg>
